X: 11279
T: Dwyer's
R: hornpipe
M: 4/4
K: Gmajor
(3DEF|:G3A G2 (3Bcd|edef gedB|e3f gedB|A3B GEDE|
G3A G2 (3Bcd|edef gfed|egde|BdAB|1 G2 GF G2 DE:|2 G2 GF G2 (3def||
|:gBfB eBfa|bagf ed (3Bcd|e3f gedB|A3B GEDE|
gBfB eBfa|bagf ed (3Bcd|egde BdAB|1 G2 GF G2 (3def:|2 G2 GA GEDE||

